public/images/icons/navigation/portfolio.svg

<svg xmlns="http://www.w3.org/2000/svg" viewBox="0 0 50 50">
    <path d="M 20 2 C 17.802666 2 16 3.8026661 16 6 L 16 9 L 8 9 C 4.1456661 9 1 12.145666 1 16 L 1 47 A 1.0001 1.0001 0 0 0 2 48 L 48 48 A 1.0001 1.0001 0 0 0 49 47 L 49 16 C 49 12.145666 45.854334 9 42 9 L 34 9 L 34 6 C 34 3.8026661 32.197334 2 30 2 L 20 2 z M 20 4 L 30 4 C 31.116666 4 32 4.8833339 32 6 L 32 9 L 18 9 L 18 6 C 18 4.8833339 18.883334 4 20 4 z M 8 11 L 42 11 C 44.773666 11 47 13.226334 47 16 L 47 46 L 3 46 L 3 16 C 3 13.226334 5.2263339 11 8 11 z M 25.949219 16 C 23.592581 16 21.620026 16.528983 20.195312 17.673828 C 18.770601 18.818673 18 20.579029 18 22.625 C 18 23.353393 18.239428 24.049024 18.478516 24.738281 C 18.200397 25.153124 18.003334 25.661545 18.083984 26.34375 C 18.177324 27.135342 18.38986 27.732418 18.736328 28.181641 C 18.86395 28.347113 19.056011 28.344422 19.214844 28.457031 C 19.335256 29.321045 19.654539 30.112881 20.048828 30.746094 C 20.286422 31.12766 20.537002 31.458197 20.773438 31.726562 C 20.844397 31.807102 20.936439 31.855067 21 31.923828 L 21 33.212891 C 20.84433 33.576634 20.57739 33.844148 20.019531 34.123047 C 19.427099 34.41923 18.602921 34.673001 17.740234 35.015625 C 16.877548 35.358249 15.951606 35.799799 15.212891 36.597656 C 14.474175 37.395514 14 38.551433 14 40 A 1.0001 1.0001 0 0 0 15 41 L 35 41 A 1.0001 1.0001 0 0 0 36 40 C 36 38.551433 35.525825 37.395514 34.787109 36.597656 C 34.048394 35.799799 33.122452 35.358249 32.259766 35.015625 C 31.397079 34.673001 30.572901 34.41923 29.980469 34.123047 C 29.42261 33.844148 29.15567 33.576634 29 33.212891 L 29 31.923828 C 29.06351 31.855228 29.155576 31.806888 29.226562 31.726562 C 29.4631 31.458913 29.713736 31.129988 29.953125 30.75 C 30.337992 30.139091 30.584856 29.333817 30.732422 28.509766 C 30.926236 28.388125 31.150641 28.378842 31.302734 28.181641 C 31.649202 27.732418 31.861741 27.135342 31.955078 26.34375 L 31.953125 26.34375 C 32.034445 25.656273 31.834888 25.146189 31.552734 24.730469 C 31.784776 24.013125 32 23.290413 32 22.625 C 32 20.853667 31.259117 19.419425 30.28125 18.470703 C 29.303383 17.521981 28.126668 17 27 17 L 27.091797 17 L 26.826172 16.517578 A 1.0001 1.0001 0 0 0 25.949219 16 z M 25.396484 18.068359 L 25.623047 18.482422 A 1.0001 1.0001 0 0 0 26.5 19 L 27 19 C 27.431332 19 28.256039 19.290519 28.888672 19.904297 C 29.521305 20.518075 30 21.396333 30 22.625 C 30 23.24472 29.887409 23.891794 29.587891 24.570312 A 1.0001 1.0001 0 0 0 29.917969 25.785156 C 29.945 25.824776 29.990505 25.925537 29.96875 26.109375 C 29.90454 26.653969 29.769616 26.890756 29.720703 26.955078 A 1.0001 1.0001 0 0 0 28.921875 27.902344 C 28.907205 28.391416 28.623192 29.109819 28.261719 29.683594 C 28.080982 29.970481 27.885884 30.224275 27.728516 30.402344 C 27.571147 30.580412 27.374697 30.699452 27.529297 30.617188 A 1.0001 1.0001 0 0 0 27 31.5 L 27 33.5 A 1.0001 1.0001 0 0 0 27.060547 33.84375 C 27.435386 34.869436 28.268088 35.501277 29.085938 35.910156 C 29.903786 36.319035 30.764546 36.574374 31.521484 36.875 C 32.278423 37.175626 32.907544 37.511373 33.318359 37.955078 C 33.52824 38.181762 33.546858 38.665361 33.666016 39 L 16.333984 39 C 16.453142 38.665361 16.47176 38.181762 16.681641 37.955078 C 17.092456 37.511373 17.721577 37.175626 18.478516 36.875 C 19.235454 36.574374 20.096215 36.319035 20.914062 35.910156 C 21.731911 35.501277 22.564614 34.869436 22.939453 33.84375 A 1.0001 1.0001 0 0 0 23 33.5 L 23 31.5 A 1.0001 1.0001 0 0 0 22.470703 30.617188 C 22.625303 30.699448 22.429693 30.581648 22.273438 30.404297 C 22.117185 30.226943 21.92375 29.974761 21.746094 29.689453 C 21.390782 29.118836 21.119634 28.407061 21.117188 27.927734 A 1.0001 1.0001 0 0 0 20.318359 26.955078 C 20.269449 26.890758 20.134526 26.653969 20.070312 26.109375 C 20.048578 25.925539 20.094063 25.824777 20.121094 25.785156 A 1.0001 1.0001 0 0 0 20.451172 24.570312 C 20.156811 23.903581 20 23.23784 20 22.625 C 20 21.045971 20.499728 19.993827 21.447266 19.232422 C 22.29658 18.549945 23.65794 18.154185 25.396484 18.068359 z">
    </path>
</svg>

<svg xmlns="http://www.w3.org/2000/svg" viewBox="0 0 50 50"><path d="M20 2c-2.197 0-4 1.803-4 4v3H8c-3.854 0-7 3.146-7 7v31a1 1 0 0 0 1 1h46a1 1 0 0 0 1-1V16c0-3.854-3.146-7-7-7h-8V6c0-2.197-1.803-4-4-4H20zm0 2h10c1.117 0 2 .883 2 2v3H18V6c0-1.117.883-2 2-2zM8 11h34c2.774 0 5 2.226 5 5v30H3V16c0-2.774 2.226-5 5-5zm17.95 5c-2.357 0-4.33.529-5.755 1.674C18.771 18.819 18 20.579 18 22.625c0 .728.24 1.424.479 2.113a2.275 2.275 0 0 0-.395 1.606c.093.791.306 1.388.652 1.838.128.165.32.162.479.275.12.864.44 1.656.834 2.29.237.38.488.711.724.98.071.08.163.128.227.197v1.289c-.156.364-.423.631-.98.91-.593.296-1.417.55-2.28.893-.862.342-1.788.784-2.527 1.582C14.474 37.396 14 38.55 14 40a1 1 0 0 0 1 1h20a1 1 0 0 0 1-1c0-1.449-.474-2.604-1.213-3.402-.739-.798-1.665-1.24-2.527-1.582-.863-.343-1.687-.597-2.28-.893-.557-.279-.824-.546-.98-.91v-1.29c.064-.068.156-.116.227-.196.236-.268.487-.597.726-.977.385-.61.632-1.416.78-2.24.193-.122.418-.131.57-.328.346-.45.559-1.047.652-1.838h-.002a2.268 2.268 0 0 0-.4-1.614c.232-.717.447-1.44.447-2.105 0-1.771-.74-3.206-1.719-4.154C29.303 17.522 28.127 17 27 17h.092l-.266-.482A1 1 0 0 0 25.95 16zm-.554 2.068.227.414A1 1 0 0 0 26.5 19h.5c.431 0 1.256.29 1.889.904.632.614 1.111 1.492 1.111 2.721a4.74 4.74 0 0 1-.412 1.945 1 1 0 0 0 .33 1.215c.027.04.073.14.05.324-.063.545-.198.782-.247.846a1 1 0 0 0-.8.947c-.014.49-.298 1.208-.66 1.782-.18.286-.375.54-.532.718-.158.178-.354.297-.2.215A1 1 0 0 0 27 31.5v2a1 1 0 0 0 .06.344c.375 1.025 1.208 1.657 2.026 2.066.818.409 1.679.664 2.435.965.757.3 1.387.636 1.797 1.08.21.227.229.71.348 1.045H16.334c.12-.335.138-.818.348-1.045.41-.444 1.04-.78 1.797-1.08.756-.3 1.617-.556 2.435-.965.818-.409 1.65-1.04 2.025-2.066A1 1 0 0 0 23 33.5v-2a1 1 0 0 0-.53-.883c.155.082-.04-.035-.197-.213a5.582 5.582 0 0 1-.527-.715c-.355-.57-.626-1.282-.629-1.761a1 1 0 0 0-.799-.973c-.049-.064-.183-.301-.248-.846-.021-.183.024-.284.051-.324a1 1 0 0 0 .33-1.215c-.294-.666-.451-1.332-.451-1.945 0-1.579.5-2.631 1.447-3.393.85-.682 2.21-1.078 3.95-1.164z"/></svg>
